X:355
T: "Der Strassburger Sohn"
N: Z1035
O: Europa, Mitteleuropa, Deutschland
R: Romanze, Ballade
M: 4/4
L: 1/16
K: G
G4 | G2d2d2d2d4e2g2 | =f4e4d4z2
e2 | =f4d2d2d4A2B2 | c4B4A4z2
d2 | d4d2B2G6B2 | d2c2c2B2A6
B2 | c2B2A2G2F4G4 | A6BAG4

@@@ Tune index: 10113
